barni/images/play-btn.svg

<svg width="138" height="138" viewBox="0 0 138 138" fill="none" xmlns="http://www.w3.org/2000/svg">
<circle cx="69.1264" cy="69.0888" r="68.8418" fill="white" fill-opacity="0.8"/>
<path d="M91.9014 61.4877C98.568 65.3367 98.568 74.9592 91.9014 78.8082L66.828 93.2844C60.1613 97.1334 51.828 92.3221 51.828 84.6241L51.828 55.6719C51.828 47.9739 60.1613 43.1626 66.828 47.0116L91.9014 61.4877Z" fill="white"/>
<path d="M88.6343 62.6737C93.3009 65.368 93.3009 72.1037 88.6343 74.798L64.0928 88.9671C59.4261 91.6614 53.5928 88.2935 53.5928 82.9049L53.5928 54.5668C53.5928 49.1782 59.4261 45.8104 64.0928 48.5047L88.6343 62.6737Z" fill="#003595"/>
</svg>

<svg width="138" height="138" fill="none" xmlns="http://www.w3.org/2000/svg"><circle cx="69.126" cy="69.089" r="68.842" fill="#fff" fill-opacity=".8"/><path d="M91.901 61.488c6.667 3.849 6.667 13.471 0 17.32L66.828 93.284c-6.667 3.85-15-.962-15-8.66V55.672c0-7.698 8.333-12.51 15-8.66l25.073 14.476Z" fill="#fff"/><path d="M88.634 62.674c4.667 2.694 4.667 9.43 0 12.124l-24.541 14.17c-4.667 2.693-10.5-.675-10.5-6.063V54.567c0-5.389 5.833-8.757 10.5-6.062l24.541 14.169Z" fill="#003595"/></svg>
